Numix-GalliumOS/48/actions/view-calendar-month.svg

<?xml version="1.0" encoding="UTF-8" standalone="no"?>
<!-- Created with Inkscape (http://www.inkscape.org/) -->

<svg
   xmlns:dc="http://purl.org/dc/elements/1.1/"
   xmlns:cc="http://creativecommons.org/ns#"
   xmlns:rdf="http://www.w3.org/1999/02/22-rdf-syntax-ns#"
   xmlns:svg="http://www.w3.org/2000/svg"
   xmlns="http://www.w3.org/2000/svg"
   xmlns:sodipodi="http://sodipodi.sourceforge.net/DTD/sodipodi-0.dtd"
   xmlns:inkscape="http://www.inkscape.org/namespaces/inkscape"
   width="48"
   height="48"
   id="svg13094"
   version="1.1"
   inkscape:version="0.91 r"
   sodipodi:docname="view-calendar-month.svg">
  <sodipodi:namedview
     id="base"
     pagecolor="#ffffff"
     bordercolor="#666666"
     borderopacity="1.0"
     inkscape:pageopacity="1"
     inkscape:pageshadow="2"
     inkscape:zoom="4"
     inkscape:cx="33.410337"
     inkscape:cy="-3.2012967"
     inkscape:document-units="px"
     inkscape:current-layer="svg13094"
     showgrid="true"
     inkscape:snap-bbox="true"
     inkscape:bbox-paths="true"
     inkscape:bbox-nodes="true"
     inkscape:snap-bbox-edge-midpoints="true"
     inkscape:snap-bbox-midpoints="true"
     inkscape:object-paths="true"
     inkscape:snap-intersection-paths="true"
     inkscape:object-nodes="true"
     inkscape:snap-smooth-nodes="true"
     inkscape:snap-midpoints="true"
     inkscape:snap-object-midpoints="true"
     inkscape:snap-center="true"
     showguides="false"
     inkscape:guide-bbox="true"
     inkscape:window-width="1920"
     inkscape:window-height="1056"
     inkscape:window-x="0"
     inkscape:window-y="24"
     inkscape:window-maximized="1"
     inkscape:snap-global="true"
     fit-margin-top="0"
     fit-margin-left="0"
     fit-margin-right="0"
     fit-margin-bottom="0"
     showborder="true"
     inkscape:showpageshadow="false"
     inkscape:snap-page="false">
    <inkscape:grid
       type="xygrid"
       id="grid3075"
       empspacing="5"
       visible="true"
       enabled="true"
       snapvisiblegridlinesonly="true"
       originx="1.6362304e-08px"
       originy="18px" />
    <sodipodi:guide
       orientation="0,1"
       position="-11,30"
       id="guide9148" />
    <sodipodi:guide
       orientation="1,0"
       position="32,70"
       id="guide9150" />
  </sodipodi:namedview>
  <defs
     id="defs13096" />
  <metadata
     id="metadata13099">
    <rdf:RDF>
      <cc:Work
         rdf:about="">
        <dc:format>image/svg+xml</dc:format>
        <dc:type
           rdf:resource="http://purl.org/dc/dcmitype/StillImage" />
        <dc:title></dc:title>
      </cc:Work>
    </rdf:RDF>
  </metadata>
  <path
     style="color:#000000;display:inline;overflow:visible;visibility:visible;fill:#dc322f;fill-opacity:1;fill-rule:nonzero;stroke:none;stroke-width:2.28571415;marker:none;enable-background:accumulate"
     d="m 3.0024378,4.3437926 0,7.9187574 0,31.577769 L 5.1116997,46 l 37.7766033,0 2.109261,-2.159681 0,-31.577769 0,-7.9187574 -20.997564,0 z"
     id="rect4519"
     inkscape:connector-curvature="0"
     sodipodi:nodetypes="cccccccccc" />
  <path
     inkscape:connector-curvature="0"
     style="color:#000000;display:inline;overflow:visible;visibility:visible;fill:#f4f4f4;fill-opacity:1;fill-rule:nonzero;stroke:none;stroke-width:1;marker:none;enable-background:accumulate"
     d="m 5.9999999,13 0,27 L 42,40 42,13 Z"
     id="path4577"
     sodipodi:nodetypes="ccccc" />
  <path
     style="color:#000000;display:inline;overflow:visible;visibility:visible;fill:#dc7876;fill-opacity:1;fill-rule:nonzero;stroke:none;marker:none;enable-background:accumulate"
     d="M 4.406175,3 3.0000003,3.7031403 3.0000003,6 15.255352,6 29.009497,6 45,6 45,3.7031417 43.593825,3.0000015 l -14.584328,0 -13.754145,0 z"
     id="path6688"
     inkscape:connector-curvature="0"
     sodipodi:nodetypes="ccccccccccc" />
  <rect
     style="color:#000000;display:inline;overflow:visible;visibility:visible;fill:#e4e4e4;fill-opacity:1;fill-rule:nonzero;stroke:none;stroke-width:2.28571415;marker:none;enable-background:accumulate"
     id="rect3872"
     width="3"
     height="9"
     x="10"
     y="0" />
  <path
     style="color:#000000;font-style:normal;font-variant:normal;font-weight:normal;font-stretch:normal;font-size:medium;line-height:normal;font-family:sans-serif;text-indent:0;text-align:start;text-decoration:none;text-decoration-line:none;text-decoration-style:solid;text-decoration-color:#000000;letter-spacing:normal;word-spacing:normal;text-transform:none;direction:ltr;block-progression:tb;writing-mode:lr-tb;baseline-shift:baseline;text-anchor:start;white-space:normal;clip-rule:nonzero;display:inline;overflow:visible;visibility:visible;opacity:1;isolation:auto;mix-blend-mode:normal;color-interpolation:sRGB;color-interpolation-filters:linearRGB;solid-color:#000000;solid-opacity:1;fill:#78cf72;fill-opacity:1;fill-rule:nonzero;stroke:none;stroke-width:2;stroke-linecap:butt;stroke-linejoin:round;stroke-miterlimit:4;stroke-dasharray:none;stroke-dashoffset:0;stroke-opacity:1;color-rendering:auto;image-rendering:auto;shape-rendering:auto;text-rendering:auto;enable-background:accumulate"
     d="m 26.248579,14.51036 c -1.048399,0.120683 -0.683699,1.322001 -0.749529,2.04876 l 0,3.946057 -17.2391594,0 c -1.0483978,0.120682 -0.6836981,1.322 -0.7495286,2.048759 l 0,15.186352 c 0.1207116,1.048152 1.3223124,0.683538 2.0492428,0.749352 l 12.1918022,0 c 1.048397,-0.120683 0.683698,-1.322 0.749529,-2.04876 l 0,-3.94604 17.239174,0 c 1.048397,-0.120683 0.683698,-1.322 0.749528,-2.048761 l 0,-15.186366 C 40.368926,14.211561 39.167326,14.576175 38.440395,14.51036 Z"
     id="rect4175"
     inkscape:connector-curvature="0"
     sodipodi:nodetypes="ccccccccccccccc" />
  <rect
     style="opacity:1;fill:#777f8a;fill-opacity:1;fill-rule:nonzero;stroke:none;stroke-width:2;stroke-linecap:butt;stroke-linejoin:round;stroke-miterlimit:4;stroke-dasharray:none;stroke-dashoffset:0;stroke-opacity:1"
     id="rect4425-0"
     width="3"
     height="3.0002477"
     x="36"
     y="33.999752"
     rx="0.75"
     ry="0.75006193" />
  <rect
     style="opacity:1;fill:#777f8a;fill-opacity:1;fill-rule:nonzero;stroke:none;stroke-width:2;stroke-linecap:butt;stroke-linejoin:round;stroke-miterlimit:4;stroke-dasharray:none;stroke-dashoffset:0;stroke-opacity:1"
     id="rect4425-70"
     width="3"
     height="3.0002477"
     x="27"
     y="33.999752"
     rx="0.75"
     ry="0.75006193" />
  <rect
     style="opacity:1;fill:#777f8a;fill-opacity:1;fill-rule:nonzero;stroke:none;stroke-width:2;stroke-linecap:butt;stroke-linejoin:round;stroke-miterlimit:4;stroke-dasharray:none;stroke-dashoffset:0;stroke-opacity:1"
     id="rect4425-41"
     width="3"
     height="3.0002477"
     x="18"
     y="33.999752"
     rx="0.75"
     ry="0.75006193" />
  <rect
     style="opacity:1;fill:#777f8a;fill-opacity:1;fill-rule:nonzero;stroke:none;stroke-width:2;stroke-linecap:butt;stroke-linejoin:round;stroke-miterlimit:4;stroke-dasharray:none;stroke-dashoffset:0;stroke-opacity:1"
     id="rect4425-0-7"
     width="3"
     height="3.0002477"
     x="36"
     y="15.999752"
     rx="0.75"
     ry="0.75006193" />
  <rect
     style="opacity:1;fill:#777f8a;fill-opacity:1;fill-rule:nonzero;stroke:none;stroke-width:2;stroke-linecap:butt;stroke-linejoin:round;stroke-miterlimit:4;stroke-dasharray:none;stroke-dashoffset:0;stroke-opacity:1"
     id="rect4425-70-9"
     width="3"
     height="3.0002477"
     x="27"
     y="15.999752"
     rx="0.75"
     ry="0.75006193" />
  <rect
     style="opacity:1;fill:#777f8a;fill-opacity:1;fill-rule:nonzero;stroke:none;stroke-width:2;stroke-linecap:butt;stroke-linejoin:round;stroke-miterlimit:4;stroke-dasharray:none;stroke-dashoffset:0;stroke-opacity:1"
     id="rect4425-41-8"
     width="3"
     height="3.0002477"
     x="18"
     y="15.999752"
     rx="0.75"
     ry="0.75006193" />
  <rect
     style="opacity:1;fill:#777f8a;fill-opacity:1;fill-rule:nonzero;stroke:none;stroke-width:2;stroke-linecap:butt;stroke-linejoin:round;stroke-miterlimit:4;stroke-dasharray:none;stroke-dashoffset:0;stroke-opacity:1"
     id="rect4425-0-7-9"
     width="3"
     height="3.0002477"
     x="36"
     y="21.999752"
     rx="0.75"
     ry="0.75006193" />
  <rect
     style="opacity:1;fill:#777f8a;fill-opacity:1;fill-rule:nonzero;stroke:none;stroke-width:2;stroke-linecap:butt;stroke-linejoin:round;stroke-miterlimit:4;stroke-dasharray:none;stroke-dashoffset:0;stroke-opacity:1"
     id="rect4425-70-9-7"
     width="3"
     height="3.0002477"
     x="27"
     y="21.999752"
     rx="0.75"
     ry="0.75006193" />
  <rect
     style="opacity:1;fill:#777f8a;fill-opacity:1;fill-rule:nonzero;stroke:none;stroke-width:2;stroke-linecap:butt;stroke-linejoin:round;stroke-miterlimit:4;stroke-dasharray:none;stroke-dashoffset:0;stroke-opacity:1"
     id="rect4425-41-8-0"
     width="3"
     height="3.0002477"
     x="18"
     y="21.999752"
     rx="0.75"
     ry="0.75006193" />
  <rect
     style="opacity:1;fill:#777f8a;fill-opacity:1;fill-rule:nonzero;stroke:none;stroke-width:2;stroke-linecap:butt;stroke-linejoin:round;stroke-miterlimit:4;stroke-dasharray:none;stroke-dashoffset:0;stroke-opacity:1"
     id="rect4425-0-1"
     width="3"
     height="3.0002477"
     x="36"
     y="27.999752"
     rx="0.75"
     ry="0.75006193" />
  <rect
     style="opacity:1;fill:#777f8a;fill-opacity:1;fill-rule:nonzero;stroke:none;stroke-width:2;stroke-linecap:butt;stroke-linejoin:round;stroke-miterlimit:4;stroke-dasharray:none;stroke-dashoffset:0;stroke-opacity:1"
     id="rect4425-70-4"
     width="3"
     height="3.0002477"
     x="27"
     y="27.999752"
     rx="0.75"
     ry="0.75006193" />
  <rect
     style="opacity:1;fill:#777f8a;fill-opacity:1;fill-rule:nonzero;stroke:none;stroke-width:2;stroke-linecap:butt;stroke-linejoin:round;stroke-miterlimit:4;stroke-dasharray:none;stroke-dashoffset:0;stroke-opacity:1"
     id="rect4425-41-7"
     width="3"
     height="3.0002477"
     x="18"
     y="27.999752"
     rx="0.75"
     ry="0.75006193" />
  <rect
     style="opacity:1;fill:#777f8a;fill-opacity:1;fill-rule:nonzero;stroke:none;stroke-width:2;stroke-linecap:butt;stroke-linejoin:round;stroke-miterlimit:4;stroke-dasharray:none;stroke-dashoffset:0;stroke-opacity:1"
     id="rect4425-46"
     width="3"
     height="3.0002477"
     x="9"
     y="33.999752"
     rx="0.75"
     ry="0.75006193" />
  <rect
     style="opacity:1;fill:#777f8a;fill-opacity:1;fill-rule:nonzero;stroke:none;stroke-width:2;stroke-linecap:butt;stroke-linejoin:round;stroke-miterlimit:4;stroke-dasharray:none;stroke-dashoffset:0;stroke-opacity:1"
     id="rect4425-46-6"
     width="3"
     height="3.0002477"
     x="9"
     y="15.999752"
     rx="0.75"
     ry="0.75006193" />
  <rect
     style="opacity:1;fill:#777f8a;fill-opacity:1;fill-rule:nonzero;stroke:none;stroke-width:2;stroke-linecap:butt;stroke-linejoin:round;stroke-miterlimit:4;stroke-dasharray:none;stroke-dashoffset:0;stroke-opacity:1"
     id="rect4425-46-6-0"
     width="3"
     height="3.0002477"
     x="9"
     y="21.999752"
     rx="0.75"
     ry="0.75006193" />
  <rect
     style="opacity:1;fill:#777f8a;fill-opacity:1;fill-rule:nonzero;stroke:none;stroke-width:2;stroke-linecap:butt;stroke-linejoin:round;stroke-miterlimit:4;stroke-dasharray:none;stroke-dashoffset:0;stroke-opacity:1"
     id="rect4425-46-4"
     width="3"
     height="3.0002477"
     x="9"
     y="27.999752"
     rx="0.75"
     ry="0.75006193" />
  <rect
     style="color:#000000;display:inline;overflow:visible;visibility:visible;fill:#e4e4e4;fill-opacity:1;fill-rule:nonzero;stroke:none;stroke-width:2.28571415;marker:none;enable-background:accumulate"
     id="rect3872-7"
     width="3"
     height="9"
     x="35"
     y="0" />
</svg>

<svg xmlns="http://www.w3.org/2000/svg" viewBox="0 0 48 48">
 <path d="m 3 4.344 0 7.919 0 31.578 l 2.109 2.16 l 37.777 0 2.109 -2.16 0 -31.578 0 -7.919 -20.998 0 z" style="visibility:visible;fill:#dc322f;fill-opacity:1;stroke:none;display:inline;color:#000;fill-rule:nonzero"/>
 <path d="m 6 13 0 27 l 36 0 0 -27" style="visibility:visible;fill:#f4f4f4;fill-opacity:1;stroke:none;display:inline;color:#000;fill-rule:nonzero"/>
 <path d="m 4.406 3 -1.406 0.703 0 2.297 12.255 0 13.754 0 15.991 0 0 -2.297 -1.406 -0.703 l -14.584 0 -13.754 0 z" style="visibility:visible;fill:#dc7876;fill-opacity:1;stroke:none;display:inline;color:#000;fill-rule:nonzero"/>
 <rect width="3" height="9" x="10" style="visibility:visible;fill:#e4e4e4;fill-opacity:1;stroke:none;display:inline;color:#000;fill-rule:nonzero"/>
 <path d="m 26.25 14.51 c -1.048 0.121 -0.684 1.322 -0.75 2.049 l 0 3.946 -17.239 0 c -1.048 0.121 -0.684 1.322 -0.75 2.049 l 0 15.186 c 0.121 1.048 1.322 0.684 2.049 0.749 l 12.192 0 c 1.048 -0.121 0.684 -1.322 0.75 -2.049 l 0 -3.946 17.239 0 c 1.048 -0.121 0.684 -1.322 0.75 -2.049 l 0 -15.186 c -0.121 -1.048 -1.322 -0.684 -2.049 -0.749" mix-blend-mode="normal" isolation="auto" white-space="normal" solid-opacity="1" solid-color="#000000" style="visibility:visible;shape-rendering:auto;color-interpolation-filters:linearRGB;fill:#78cf72;opacity:1;image-rendering:auto;fill-opacity:1;stroke:none;display:inline;color:#000;fill-rule:nonzero;color-rendering:auto;color-interpolation:sRGB"/>
 <rect width="3" height="3" x="36" y="34" rx="0.75" style="fill:#777f8a;opacity:1;fill-opacity:1;stroke:none;fill-rule:nonzero"/>
 <rect width="3" height="3" x="27" y="34" rx="0.75" style="fill:#777f8a;opacity:1;fill-opacity:1;stroke:none;fill-rule:nonzero"/>
 <rect width="3" height="3" x="18" y="34" rx="0.75" style="fill:#777f8a;opacity:1;fill-opacity:1;stroke:none;fill-rule:nonzero"/>
 <rect width="3" height="3" x="36" y="16" rx="0.75" style="fill:#777f8a;opacity:1;fill-opacity:1;stroke:none;fill-rule:nonzero"/>
 <rect width="3" height="3" x="27" y="16" rx="0.75" style="fill:#777f8a;opacity:1;fill-opacity:1;stroke:none;fill-rule:nonzero"/>
 <rect width="3" height="3" x="18" y="16" rx="0.75" style="fill:#777f8a;opacity:1;fill-opacity:1;stroke:none;fill-rule:nonzero"/>
 <rect width="3" height="3" x="36" y="22" rx="0.75" style="fill:#777f8a;opacity:1;fill-opacity:1;stroke:none;fill-rule:nonzero"/>
 <rect width="3" height="3" x="27" y="22" rx="0.75" style="fill:#777f8a;opacity:1;fill-opacity:1;stroke:none;fill-rule:nonzero"/>
 <rect width="3" height="3" x="18" y="22" rx="0.75" style="fill:#777f8a;opacity:1;fill-opacity:1;stroke:none;fill-rule:nonzero"/>
 <rect width="3" height="3" x="36" y="28" rx="0.75" style="fill:#777f8a;opacity:1;fill-opacity:1;stroke:none;fill-rule:nonzero"/>
 <rect width="3" height="3" x="27" y="28" rx="0.75" style="fill:#777f8a;opacity:1;fill-opacity:1;stroke:none;fill-rule:nonzero"/>
 <rect width="3" height="3" x="18" y="28" rx="0.75" style="fill:#777f8a;opacity:1;fill-opacity:1;stroke:none;fill-rule:nonzero"/>
 <rect width="3" height="3" x="9" y="34" rx="0.75" style="fill:#777f8a;opacity:1;fill-opacity:1;stroke:none;fill-rule:nonzero"/>
 <rect width="3" height="3" x="9" y="16" rx="0.75" style="fill:#777f8a;opacity:1;fill-opacity:1;stroke:none;fill-rule:nonzero"/>
 <rect width="3" height="3" x="9" y="22" rx="0.75" style="fill:#777f8a;opacity:1;fill-opacity:1;stroke:none;fill-rule:nonzero"/>
 <rect width="3" height="3" x="9" y="28" rx="0.75" style="fill:#777f8a;opacity:1;fill-opacity:1;stroke:none;fill-rule:nonzero"/>
 <rect width="3" height="9" x="35" style="visibility:visible;fill:#e4e4e4;fill-opacity:1;stroke:none;display:inline;color:#000;fill-rule:nonzero"/>
</svg>
